X:310
T: Leitrim Reel
T: R\'il Liadroma
S: "Ceol Rince na hEireann" 1/183
Z: B.Black
L: 1/8
M: 4/4
R: reel
K: Edor
gf|: eB B2 eBdB|AF F2 defd|eB B2 eBdB|AFDE FE E2 :|
(3Bcd ef g2 fe|defg a3f|Bdef g2 fe|fbba fe e2|
Bdef g2 fe|defg a2 ga|bgaf gfed|edBd e2 ||
